;FLAVOR:Marlin
;TIME:13363
;Filament used: 7.90283m
;Layer height: 0.1
;MINX:67.2
;MINY:67.2
;MINZ:0.3
;MAXX:132.8
;MAXY:132.8
;MAXZ:44
;Generated with Cura_SteamEngine 5.0.0
M140 S60
M105
M190 S60
M104 S200
M105
M109 S200
M82 ;absolute extrusion mode
G21 ;metric values
G90 ;absolute positioning
M82 ;set extruder to absolute mode
M107 ;start with the fan off
G28 X0 Y0 ;move X/Y to min endstops
G28 Z0 ;move Z to min endstops
G1 Z15.0 F9000 ;move the platform down 15mm
G92 E0 ;zero the extruded length
G1 F200 E3 ;extrude 3mm of feed stock
G92 E0 ;zero the extruded length again
G1 F9000
;Put printing message on LCD screen
M117 Printing...
G92 E0
G92 E0
G1 F1500 E-6.5
;LAYER_COUNT:438
;LAYER:0
M107
G0 F3600 X69.623 Y69.349 Z0.3
G0 X67.2 Y75
;TYPE:SKIRT
G1 F1500 E0
G1 F1800 X67.24 Y74.211 E0.03941
G1 X67.359 Y73.431 E0.07878
G1 X67.557 Y72.666 E0.1182
G1 X67.831 Y71.926 E0.15757
G1 X68.179 Y71.217 E0.19697
G1 X68.597 Y70.546 E0.23641
G1 X69.08 Y69.922 E0.27578
G1 X69.623 Y69.349 E0.31517
G1 X70.222 Y68.834 E0.35458
G1 X97.98 Y73.2 E270.00214
G1 X98.357 Y73.24 E270.02106
G1 X98.717 Y73.358 E270.03996
G1 X99.044 Y73.548 E270.05882
G1 X99.325 Y73.803 E270.07776
G1 X99.545 Y74.112 E270.09668
G1 X99.697 Y74.459 E270.11558
G1 X99.78 Y75 E270.14289
G1 X99.78 Y80 E270.39234
G1 X99.74 Y80.377 E270.41125
G1 X99.622 Y80.737 E270.43015
G1 X99.432 Y81.064 E270.44902
G1 X99.177 Y81.345 E270.46795
G1 X98.868 Y81.565 E270.48687
G1 X98.521 Y81.717 E270.50577
G1 X97.98 Y81.8 E270.53308
G1 X81.8 Y81.8 E271.3403
G1 X81.8 Y118.2 E273.15631
G1 X118.35 Y118.2 E274.9798
G1 X118.35 Y81.8 E276.7958
G1 X115.03 Y81.8 E276.96143
G1 X114.653 Y81.76 E276.98035
G1 X114.293 Y81.642 E276.99925
G1 X113.966 Y81.452 E277.01812
G1 X113.685 Y81.197 E277.03705
G1 X113.465 Y80.888 E277.05597
G1 X113.313 Y80.541 E277.07487
G1 X113.23 Y80 E277.10218
G1 X113.23 Y75 E277.35163
G1 X113.27 Y74.623 E277.37054
G1 X113.388 Y74.263 E277.38944
G1 X113.578 Y73.936 E277.40831
G1 X113.833 Y73.655 E277.42724
G1 X114.142 Y73.435 E277.44617
G1 X114.489 Y73.283 E277.46507
G1 X115.03 Y73.2 E277.49237
G1 X125 Y73.2 E277.98978
G1 X125.377 Y73.24 E278.00869
G1 X125.737 Y73.358 E278.02759
G1 X126.064 Y73.548 E278.04646
G1 X126.345 Y73.803 E278.06539
G1 X126.565 Y74.112 E278.08432
G1 X126.717 Y74.459 E278.10322
G1 X126.8 Y75 E278.13052
G1 X126.8 Y125 E280.62503
G1 X126.76 Y125.377 E280.64395
G1 X126.642 Y125.737 E280.66285
G1 X126.452 Y126.064 E280.68172
G1 X126.197 Y126.345 E280.70065
G1 X125.888 Y126.565 E280.71957
G1 X125.541 Y126.717 E280.73847
G1 X125 Y126.8 E280.76578
G1 X75 Y126.8 E283.26029
G1 X74.623 Y126.76 E283.2792
G1 X74.263 Y126.642 E283.2981
G1 X73.936 Y126.452 E283.31697
G1 X73.655 Y126.197 E283.3359
G1 X73.435 Y125.888 E283.35483
G1 X73.283 Y125.541 E283.37373
G1 X73.2 Y125 E283.40103
G1 X73.2 Y75 E285.89554
G0 F3600 X73.6 Y75
G1 F1800 X73.64 Y74.668 E285.91223
G1 X73.757 Y74.356 E285.92885
G1 X73.945 Y74.079 E285.94555
G1 X74.193 Y73.856 E285.96219
G1 X74.487 Y73.697 E285.97887
G1 X75 Y73.6 E286.00491
G1 X97.98 Y73.6 E287.15139
G1 X98.312 Y73.64 E287.16807
G1 X98.624 Y73.757 E287.1847
G1 X98.901 Y73.945 E287.2014
G1 X99.124 Y74.193 E287.21804
G1 X99.283 Y74.487 E287.23472
G1 X99.38 Y75 E287.26076
G1 X99.38 Y80 E287.51021
G1 X99.34 Y80.332 E287.5269
G1 X99.223 Y80.644 E287.54352
G1 X99.035 Y80.921 E287.56022
G1 X98.787 Y81.144 E287.57686
G1 X98.493 Y81.303 E287.59354
G1 F1178.3 X95.069 Y110.342 E3735.59974
G0 F7200 X95.121 Y109.829
G1 F1178.3 X95.625 Y110.333 E3735.61159
G0 F7200 X95.677 Y109.82
G1 F1178.3 X96.181 Y110.323 E3735.62343
G0 F7200 X96.233 Y109.81
G1 F1178.3 X96.737 Y110.314 E3735.63529
G0 F7200 X96.789 Y109.8
G1 F1178.3 X97.293 Y110.304 E3735.64714
G0 F7200 X97.345 Y109.791
G1 F1178.3 X97.849 Y110.294 E3735.65898
G0 F7200 X97.901 Y109.781
G1 F1178.3 X98.405 Y110.285 E3735.67083
G0 F7200 X98.904 Y110.218
G1 F1178.3 X98.457 Y109.771 E3735.68135
;MESH:NONMESH
G0 F600 X98.457 Y109.771 Z43
G0 F7200 X85.654 Y109.393
G0 X85.271 Y109.145
;TIME_ELAPSED:13318.741198
;LAYER:427
;TYPE:WALL-OUTER
;MESH:jig.stl
G1 F931.1 X85.288 Y110.254 E3735.69979
G1 X85.307 Y111.368 E3735.71832
G1 X98.789 Y111.135 E3735.94256
G1 X99.899 Y111.115 E3735.96102
G1 X99.863 Y108.892 E3735.998
G1 X85.271 Y109.145 E3736.2407
G0 F7200 X85.274 Y109.345
G0 X85.677 Y109.538
;TYPE:WALL-INNER
G1 F1862.3 X85.688 Y110.248 E3736.25251
G1 X85.7 Y110.961 E3736.26437
G1 X98.782 Y110.735 E3736.48195
G1 X99.493 Y110.722 E3736.49378
G1 X99.47 Y109.299 E3736.51745
G1 X85.677 Y109.538 E3736.74686
G0 F7200 X86.13 Y109.976
;TYPE:SKIN
G1 F700.1 X86.138 Y110.507 E3736.75861
G1 X99.04 Y110.285 E3737.04401
G1 X99.031 Y109.754 E3737.05576
G1 X86.13 Y109.976 E3737.34115
;MESH:NONMESH
G0 F600 X86.13 Y109.976 Z43.1
G0 F7200 X85.273 Y109.27
;TIME_ELAPSED:13324.323196
;LAYER:428
;TYPE:WALL-OUTER
;MESH:jig.stl
G1 F903.2 X85.288 Y110.254 E3737.35751
G1 X85.305 Y111.243 E3737.37396
G1 X98.911 Y111.008 E3737.60026
G1 X99.897 Y110.99 E3737.61666
G1 X99.865 Y109.017 E3737.64948
G1 X85.273 Y109.27 E3737.89218
G0 F7200 X85.276 Y109.47
G0 X85.679 Y109.662
;TYPE:WALL-INNER
G1 F1806.3 X85.688 Y110.248 E3737.90193
G1 X85.698 Y110.836 E3737.91171
G1 X98.904 Y110.608 E3738.13136
G1 X99.491 Y110.597 E3738.14112
G1 X99.472 Y109.424 E3738.16063
G1 X85.679 Y109.662 E3738.39004
G0 F7200 X86.068 Y110.039
;TYPE:SKIN
G1 F887.6 X86.075 Y110.446 E3738.39693
G1 X98.898 Y110.226 E3738.61394
G1 X99.102 Y110.221 E3738.6174
G1 X99.095 Y109.815 E3738.62427
G1 X86.068 Y110.039 E3738.84473
;MESH:NONMESH
G0 F600 X86.068 Y110.039 Z43.2
G0 F7200 X85.276 Y109.395
;TIME_ELAPSED:13329.463235
;LAYER:429
;TYPE:WALL-OUTER
;MESH:jig.stl
G1 F725.4 X85.289 Y110.255 E3738.85903
G1 X85.303 Y111.118 E3738.87339
G1 X99.033 Y110.881 E3739.10175
G1 X99.894 Y110.865 E3739.11607
G1 X99.882 Y110.005 E3739.13038
G1 X99.867 Y109.142 E3739.14473
G1 X85.276 Y109.395 E3739.38742
G0 F7200 X85.279 Y109.595
G0 X85.682 Y109.788
;TYPE:WALL-INNER
G1 F1450.9 X85.689 Y110.249 E3739.39508
G1 X85.697 Y110.711 E3739.40277
G1 X99.026 Y110.481 E3739.62446
G1 X99.488 Y110.472 E3739.63215
G1 X99.474 Y109.548 E3739.64752
G1 X85.682 Y109.788 E3739.87691
G0 F7200 X86.151 Y110.242
;TYPE:SKIN
G1 F514.5 X89.367 Y110.187 E3739.95233
G1 X92.584 Y110.131 E3740.02778
G1 F513.6 X95.801 Y110.075 E3740.10336
G1 X99.018 Y110.019 E3740.17894
;MESH:NONMESH
G0 F600 X99.018 Y110.019 Z43.3
G0 F7200 X85.661 Y109.768
G0 X85.278 Y109.52
;TIME_ELAPSED:13335.124409
;LAYER:430
;TYPE:WALL-OUTER
;MESH:jig.stl
G1 F600 X85.289 Y110.255 E3740.19116
G1 X85.301 Y110.993 E3740.20343
G1 X99.156 Y110.754 E3740.43388
G1 X99.893 Y110.74 E3740.44614
G1 X99.869 Y109.267 E3740.47064
G1 X85.278 Y109.52 E3740.71332
G0 F7200 X85.28 Y109.72
G0 X85.753 Y109.98
;TYPE:WALL-INNER
G1 F893.9 X85.757 Y110.248 E3740.71931
G1 X85.762 Y110.517 E3740.72531
G1 X92.589 Y110.399 E3740.87775
G1 X99.417 Y110.28 E3741.03022
G1 F892.2 X99.408 Y109.743 E3741.04223
G1 F893.9 X92.581 Y109.861 E3741.19467
G1 X85.753 Y109.98 E3741.34714
G0 F7200 X85.998 Y110.217
;MESH:NONMESH
G0 F600 X85.998 Y110.217 Z43.4
G0 F7200 X85.28 Y109.645
;TIME_ELAPSED:13340.357579
;LAYER:431
;TYPE:WALL-OUTER
;MESH:jig.stl
G1 F600 X85.289 Y110.255 E3741.35728
G1 X85.299 Y110.868 E3741.36748
G1 X99.279 Y110.627 E3741.6
G1 X99.891 Y110.615 E3741.61018
G1 X99.871 Y109.392 E3741.63052
G1 X85.28 Y109.645 E3741.87321
G0 F7200 X85.282 Y109.845
G0 X85.692 Y110.044
;TYPE:WALL-INNER
G1 F1165 X85.695 Y110.249 E3741.87672
G1 X85.699 Y110.455 E3741.88025
G1 X92.589 Y110.336 E3741.99829
G1 X99.479 Y110.217 E3742.11632
G1 F1162.2 X99.472 Y109.804 E3742.12341
G1 F1165 X92.582 Y109.924 E3742.24145
G1 X85.692 Y110.044 E3742.35949
G0 F7200 X86 Y110.342
;MESH:NONMESH
G0 F600 X86 Y110.342 Z43.5
G0 F7200 X85.281 Y109.77
;TIME_ELAPSED:13345.098522
;LAYER:432
;TYPE:WALL-OUTER
;MESH:jig.stl
G1 F600 X85.288 Y110.255 E3742.36755
G1 X85.297 Y110.743 E3742.37567
G1 X99.402 Y110.499 E3742.61027
G1 X99.889 Y110.49 E3742.61837
G1 X99.873 Y109.517 E3742.63456
G1 X85.768 Y109.761 E3742.86916
G1 X85.281 Y109.77 E3742.87726
G0 F7200 X85.283 Y109.97
G0 X85.776 Y110.248
;TYPE:WALL-INNER
G1 F833.3 X99.394 Y110.012 E3743.20342
;MESH:NONMESH
G0 F600 X99.394 Y110.012 Z43.6
G0 F7200 X85.667 Y110.143
G0 X85.366 Y109.974
;TIME_ELAPSED:13349.412762
;LAYER:433
;TYPE:WALL-OUTER
;MESH:jig.stl
G1 F426.3 X85.37 Y110.254 E3743.20998
G1 X85.375 Y110.536 E3743.21658
G1 F427 X92.589 Y110.411 E3743.38516
G1 X99.804 Y110.286 E3743.55377
G1 X99.795 Y109.724 E3743.5669
G1 X92.581 Y109.849 E3743.73548
G1 X85.366 Y109.974 E3743.90409
G0 F7200 X85.368 Y110.174
;MESH:NONMESH
G0 F600 X85.368 Y110.174 Z43.7
G0 F7200 X85.305 Y110.038
;TIME_ELAPSED:13353.690598
;LAYER:434
;TYPE:WALL-OUTER
;MESH:jig.stl
G1 F547.9 X85.308 Y110.255 E3743.90804
G1 X85.311 Y110.474 E3743.91203
G1 F549.2 X92.479 Y110.351 E3744.04228
G1 X99.648 Y110.227 E3744.17254
G1 X99.866 Y110.222 E3744.17651
G1 X99.859 Y109.785 E3744.18445
G1 X92.582 Y109.911 E3744.31668
G1 X85.305 Y110.038 E3744.44891
G0 F7200 X85.307 Y110.238
;MESH:NONMESH
G0 F600 X85.307 Y110.238 Z43.8
G0 F7200 X85.401 Y110.255
;TIME_ELAPSED:13357.028517
;LAYER:435
;TYPE:WALL-OUTER
;MESH:jig.stl
G1 F384.6 X99.769 Y110.005 E3744.82171
G1 F1500 E3738.32171
;MESH:NONMESH
G0 F600 X99.769 Y110.005 Z43.9
G0 F7200 X99.752 Y109.03
G0 X85.259 Y109.281
G0 X85.276 Y110.257
;TIME_ELAPSED:13359.775476
;LAYER:436
;TYPE:WALL-OUTER
;MESH:jig.stl
G1 F1500 E3744.82171
G1 F641.7 X99.894 Y110.003 E3745.04904
G1 F1500 E3738.54904
;MESH:NONMESH
G0 F600 X99.894 Y110.003 Z44
G0 F7200 X99.879 Y109.153
G0 X85.135 Y109.409
G0 X85.15 Y110.257
;TIME_ELAPSED:13361.911974
;LAYER:437
;TYPE:WALL-OUTER
;MESH:jig.stl
G1 F1500 E3745.04904
G1 F705.9 X100.018 Y110.001 E3745.25924
;TIME_ELAPSED:13363.443429
G1 F1500 E3738.75924
M140 S0
M107
M104 S0 ;extruder heater off
M140 S0 ;heated bed heater off (if you have it)
G91 ;relative positioning
G1 E-1 F300  ;retract the filament a bit before lifting the nozzle, to release some of the pressure
G1 Z+0.5 E-5 X-20 Y-20 F9000 ;move Z up a bit and retract filament even more
G28 X0 Y0 ;move X/Y to min endstops, so the head is out of the way
M84 ;steppers off
G90 ;absolute positioning
M82 ;absolute extrusion mode
M104 S0
;End of Gcode