;FLAVOR:Marlin
;TIME:13363
;Filament used: 7.90283m
;Layer height: 0.1
;MINX:67.2
;MINY:67.2
;MINZ:0.3
;MAXX:132.8
;MAXY:132.8
;MAXZ:44
;Generated with Cura_SteamEngine 5.0.0
M140 S60
M105
M190 S60
M104 S200
M105
M109 S200
M82 ;absolute extrusion mode
G21 ;metric values
G90 ;absolute positioning
M82 ;set extruder to absolute mode
M107 ;start with the fan off
G28 X0 Y0 ;move X/Y to min endstops
G28 Z0 ;move Z to min endstops
G1 Z15.0 F9000 ;move the platform down 15mm
G92 E0 ;zero the extruded length
G1 F200 E3 ;extrude 3mm of feed stock
G92 E0 ;zero the extruded length again
G1 F9000
;Put printing message on LCD screen
M117 Printing...
G92 E0
G92 E0
G1 F1500 E-6.5
;LAYER_COUNT:438
;LAYER:0
M107
G0 F3600 X69.623 Y69.349 Z0.3
G0 X67.2 Y75
;TYPE:SKIRT
G1 F1500 E0
G1 F1800 X67.24 Y74.211 E0.03941
G1 X67.359 Y73.431 E0.07878
G1 X67.557 Y72.666 E0.1182
G1 X67.831 Y71.926 E0.15757
G1 X68.179 Y71.217 E0.19697
G1 X68.597 Y70.546 E0.23641
G1 X69.08 Y69.922 E0.27578
G1 X69.623 Y69.349 E0.31517
G1 X70.222 Y68.834 E0.35458
G1 X70.87 Y68.383 E0.39397
G1 X71.561 Y67.999 E0.43341
G1 X72.286 Y67.687 E0.47278
G1 X73.039 Y67.45 E0.51217
G1 X73.813 Y67.291 E0.55159
G1 X74.598 Y67.21 E0.59096
G1 X75 Y67.2 E0.61102
G1 X97.98 Y67.2 E1.7575
G1 X98.769 Y67.24 E1.79691
G1 X99.549 Y67.359 E1.83628
G1 X100.314 Y67.557 E1.8757
G1 X101.054 Y67.831 E1.91507
G1 X101.763 Y68.179 E1.95447
G1 X102.434 Y68.597 E1.99391
G1 X103.058 Y69.08 E2.03328
G1 X103.631 Y69.623 E2.07267
G1 X104.146 Y70.222 E2.11208
G1 X104.597 Y70.87 E2.15146
G1 X104.981 Y71.561 E2.1909
G1 X105.293 Y72.286 E2.23028
G1 X105.53 Y73.039 E2.26967
G1 X105.689 Y73.813 E2.30909
G1 X105.77 Y74.598 E2.34846
G1 X105.78 Y75 E2.36852
G1 X105.78 Y80 E2.61797
G1 X105.74 Y80.789 E2.65739
G1 X105.621 Y81.569 E2.69675
G1 X105.423 Y82.334 E2.73617
G1 X105.149 Y83.074 E2.77554
G1 X104.801 Y83.783 E2.81495
G1 X104.383 Y84.454 E2.85439
G1 X103.9 Y85.078 E2.89375
G1 X103.357 Y85.651 E2.93314
G1 X102.758 Y86.166 E2.97255
G1 X102.11 Y86.617 E3.01194
G1 X101.419 Y87.001 E3.05138
G1 X100.694 Y87.313 E3.09075
G1 X99.941 Y87.55 E3.13014
G1 X99.167 Y87.709 E3.16956
G1 X98.382 Y87.79 E3.20893
G1 X97.98 Y87.8 E3.22899
G1 X87.8 Y87.8 E3.73688
G1 X87.8 Y112.2 E4.9542
G1 X112.35 Y112.2 E6.179
G1 X112.35 Y87.315 E7.42052
G1 X111.956 Y87.169 E7.44148
G1 X111.247 Y86.821 E7.48089
G1 X110.576 Y86.403 E7.52033
G1 X109.952 Y85.92 E7.55969
G1 X109.379 Y85.377 E7.59908
G1 X108.864 Y84.778 E7.63849
G1 X108.413 Y84.13 E7.67788
G1 X108.029 Y83.439 E7.71732
G1 X107.717 Y82.714 E7.75669
G1 X107.48 Y81.961 E7.79608
G1 X107.321 Y81.187 E7.8355
G1 X107.24 Y80.402 E7.87487
G1 X107.23 Y80 E7.89493
G1 X107.23 Y75 E8.14438
G1 X107.27 Y74.211 E8.1838
G1 X107.389 Y73.431 E8.22316
G1 X107.587 Y72.666 E8.26259
G1 X107.861 Y71.926 E8.30196
G1 X108.209 Y71.217 E8.34136
G1 X108.627 Y70.546 E8.3808
G1 X109.11 Y69.922 E8.42017
G1 X109.653 Y69.349 E8.45955
G1 X110.252 Y68.834 E8.49896
G1 X110.9 Y68.383 E8.53835
G1 X111.591 Y67.999 E8.57779
G1 X112.316 Y67.687 E8.61717
G1 X113.069 Y67.45 E8.65655
G1 X113.843 Y67.291 E8.69597
G1 X114.628 Y67.21 E8.73534
G1 X115.03 Y67.2 E8.75541
G1 X125 Y67.2 E9.25281
G1 X125.789 Y67.24 E9.29223
G1 X126.569 Y67.359 E9.33159
G1 X127.334 Y67.557 E9.37101
G1 X128.074 Y67.831 E9.41038
G1 X128.783 Y68.179 E9.44979
G1 X129.454 Y68.597 E9.48923
G1 X130.078 Y69.08 E9.52859
G1 X130.651 Y69.623 E9.56798
G1 X131.166 Y70.222 E9.60739
G1 X131.617 Y70.87 E9.64678
G1 X132.001 Y71.561 E9.68622
G1 X132.313 Y72.286 E9.72559
G1 X132.55 Y73.039 E9.76498
G1 X132.709 Y73.813 E9.8044
G1 X132.79 Y74.598 E9.84377
G1 X132.8 Y75 E9.86383
G1 X132.8 Y125 E12.35834
G1 X132.76 Y125.789 E12.39776
G1 X132.641 Y126.569 E12.43712
G1 X132.443 Y127.334 E12.47655
G1 X132.169 Y128.074 E12.51591
G1 X131.821 Y128.783 E12.55532
G1 X131.403 Y129.454 E12.59476
G1 X130.92 Y130.078 E12.63413
G1 X130.377 Y130.651 E12.67351
G1 X129.778 Y131.166 E12.71292
G1 X129.13 Y131.617 E12.75231
G1 X128.439 Y132.001 E12.79175
G1 X127.714 Y132.313 E12.83113
G1 X126.961 Y132.55 E12.87051
G1 X126.187 Y132.709 E12.90993
G1 X125.402 Y132.79 E12.9493
G1 X125 Y132.8 E12.96937
G1 X75 Y132.8 E15.46388
G1 X74.211 Y132.76 E15.50329
G1 X73.431 Y132.641 E15.54265
G1 X72.666 Y132.443 E15.58208
G1 X71.926 Y132.169 E15.62145
G1 X71.217 Y131.821 E15.66085
G1 X70.546 Y131.403 E15.70029
G1 X69.922 Y130.92 E15.73966
G1 X69.349 Y130.377 E15.77904
G1 X68.834 Y129.778 E15.81845
G1 X68.383 Y129.13 E15.85784
G1 X67.999 Y128.439 E15.89728
G1 X67.687 Y127.714 E15.93666
G1 X67.45 Y126.961 E15.97604
G1 X67.291 Y126.187 E16.01546
G1 X67.21 Y125.402 E16.05484
G1 X67.2 Y125 E16.0749
G1 X67.2 Y75 E18.56941
G0 F3600 X67.6 Y75
G1 F1800 X67.64 Y74.232 E18.60778
G1 X67.759 Y73.472 E18.64615
G1 X67.957 Y72.729 E18.68452
G1 X68.231 Y72.01 E18.7229
G1 X68.578 Y71.324 E18.76126
G1 X68.994 Y70.677 E18.79963
G1 X69.475 Y70.077 E18.838
G1 X70.016 Y69.53 E18.87638
G1 X70.611 Y69.042 E18.91477
G1 X71.253 Y68.619 E18.95313
G1 X71.936 Y68.264 E18.99153
G1 X72.651 Y67.983 E19.02986
G1 X73.393 Y67.777 E19.06828
G1 X74.151 Y67.649 E19.10663
G1 X75 Y67.6 E19.14906
G1 X97.98 Y67.6 E20.29554
G1 X98.748 Y67.64 E20.3339
G1 X99.508 Y67.759 E20.37228
G1 X100.251 Y67.957 E20.41064
G1 X100.97 Y68.231 E20.44903
G1 X101.656 Y68.578 E20.48739
G1 X102.303 Y68.994 E20.52576
G1 X102.903 Y69.475 E20.56413
G1 X103.45 Y70.016 E20.60251
G1 X103.938 Y70.611 E20.6409
G1 X104.361 Y71.253 E20.67926
G1 X104.716 Y71.936 E20.71766
G1 X104.997 Y72.651 E20.75599
G1 X105.203 Y73.393 E20.79441
G1 X105.331 Y74.151 E20.83276
G1 X105.38 Y75 E20.87519
G1 X105.38 Y80 E21.12464
G1 X105.34 Y80.768 E21.16301
G1 X105.221 Y81.528 E21.20138
G1 X105.023 Y82.271 E21.23975
G1 X104.749 Y82.99 E21.27813
G1 X104.402 Y83.676 E21.31649
G1 X103.986 Y84.323 E21.35486
G1 X103.505 Y84.923 E21.39323
G1 X102.964 Y85.47 E21.43161
G1 X102.369 Y85.958 E21.47
G1 X101.727 Y86.381 E21.50836
G1 X101.044 Y86.736 E21.54676
G1 X100.329 Y87.017 E21.58509
G1 X99.587 Y87.223 E21.62351
G1 X98.829 Y87.351 E21.66186
G1 X97.98 Y87.4 E21.70429
G1 X87.4 Y87.4 E22.23213
G1 X87.4 Y112.6 E23.48936
G1 X112.75 Y112.6 E24.75408
G1 X112.75 Y87.04 E26.02927
G1 X112.04 Y86.769 E26.06718
G1 X111.354 Y86.422 E26.10554
G1 X110.707 Y86.006 E26.14391
G1 X110.107 Y85.525 E26.18228
G1 X109.56 Y84.984 E26.22066
G1 X109.072 Y84.389 E26.25905
G1 X108.649 Y83.747 E26.29741
G1 X108.294 Y83.064 E26.33581
G1 X108.013 Y82.349 E26.37414
G1 X107.807 Y81.607 E26.41256
G1 X107.679 Y80.849 E26.45091
G1 X107.63 Y80 E26.49334
G1 X107.63 Y75 E26.74279
G1 X107.67 Y74.232 E26.78116
G1 X107.789 Y73.472 E26.81954
G1 X107.987 Y72.729 E26.8579
G1 X108.261 Y72.01 E26.89629
G1 X108.608 Y71.324 E26.93464
G1 X109.024 Y70.677 E26.97302
G1 X109.505 Y70.077 E27.01138
G1 X110.046 Y69.53 E27.04976
G1 X110.641 Y69.042 E27.08816
G1 X111.283 Y68.619 E27.12651
G1 X111.966 Y68.264 E27.16492
G1 X112.681 Y67.983 E27.20324
G1 X113.423 Y67.777 E27.24166
G1 X114.181 Y67.649 E27.28001
G1 X115.03 Y67.6 E27.32244
G1 X125 Y67.6 E27.81985
G1 X125.768 Y67.64 E27.85821
G1 X126.528 Y67.759 E27.89659
G1 X127.271 Y67.957 E27.93495
G1 X127.99 Y68.231 E27.97334
G1 X128.676 Y68.578 E28.0117
G1 X129.323 Y68.994 E28.05007
G1 X129.923 Y69.475 E28.08844
G1 X130.47 Y70.016 E28.12682
G1 X130.958 Y70.611 E28.16521
G1 X131.381 Y71.253 E28.20357
G1 X131.736 Y71.936 E28.24197
G1 X132.017 Y72.651 E28.2803
G1 X132.223 Y73.393 E28.31872
G1 X132.351 Y74.151 E28.35707
G1 X132.4 Y75 E28.3995
G1 X132.4 Y125 E30.89401
G1 X132.36 Y125.768 E30.93237
G1 X132.241 Y126.528 E30.97075
G1 X132.043 Y127.271 E31.00912
G1 X131.769 Y127.99 E31.0475
G1 X131.422 Y128.676 E31.08586
G1 X131.006 Y129.323 E31.12423
G1 X130.525 Y129.923 E31.1626
G1 X129.984 Y130.47 E31.20098
G1 X129.389 Y130.958 E31.23937
G1 X128.747 Y131.381 E31.27773
G1 X128.064 Y131.736 E31.31613
G1 X127.349 Y132.017 E31.35446
G1 X126.607 Y132.223 E31.39288
G1 X125.849 Y132.351 E31.43123
G1 X125 Y132.4 E31.47366
G1 X75 Y132.4 E33.96817
G1 X74.232 Y132.36 E34.00654
G1 X73.472 Y132.241 E34.04491
G1 X72.729 Y132.043 E34.08328
G1 X72.01 Y131.769 E34.12166
G1 X71.324 Y131.422 E34.16002
G1 X70.677 Y131.006 E34.19839
G1 X70.077 Y130.525 E34.23676
G1 X69.53 Y129.984 E34.27514
G1 X69.042 Y129.389 E34.31353
G1 X68.619 Y128.747 E34.35189
G1 X68.264 Y128.064 E34.39029
G1 X67.983 Y127.349 E34.42862
G1 X67.777 Y126.607 E34.46704
G1 X67.649 Y125.849 E34.50539
G1 X67.6 Y125 E34.54782
G1 X67.6 Y75 E37.04233
G0 F3600 X68 Y75
G1 F1800 X68.04 Y74.253 E37.07965
G1 X68.159 Y73.515 E37.11694
G1 X68.357 Y72.793 E37.15429
G1 X68.63 Y72.097 E37.19159
G1 X68.977 Y71.434 E37.22893
G1 X69.392 Y70.811 E37.26627
G1 X69.871 Y70.237 E37.30357
G1 X70.408 Y69.716 E37.3409
G1 X70.998 Y69.257 E37.37819
G1 X71.634 Y68.862 E37.41555
G1 X72.308 Y68.538 E37.45286
G1 X73.013 Y68.288 E37.49017
G1 X73.741 Y68.114 E37.52752
G1 X74.483 Y68.019 E37.56484
G1 X75 Y68 E37.59065
G1 X97.98 Y68 E38.73713
G1 X98.727 Y68.04 E38.77445
G1 X99.465 Y68.159 E38.81174
G1 X100.187 Y68.357 E38.84909
G1 X100.883 Y68.63 E38.88639
G1 X101.546 Y68.977 E38.92372
G1 X102.169 Y69.392 E38.96107
G1 X102.743 Y69.871 E38.99837
G1 X103.264 Y70.408 E39.0357
G1 X103.723 Y70.998 E39.07299
G1 X104.118 Y71.634 E39.11034
G1 X104.442 Y72.308 E39.14765
G1 X104.692 Y73.013 E39.18497
G1 X104.866 Y73.741 E39.22231
G1 X104.961 Y74.483 E39.25963
G1 X104.98 Y75 E39.28545
G1 X104.98 Y80 E39.5349
G1 X104.94 Y80.747 E39.57222
G1 X104.821 Y81.485 E39.60951
G1 X104.623 Y82.207 E39.64686
G1 X104.35 Y82.903 E39.68416
G1 X104.003 Y83.566 E39.7215
G1 X103.588 Y84.189 E39.75884
G1 X103.109 Y84.763 E39.79614
G1 X102.572 Y85.284 E39.83347
G1 X101.982 Y85.743 E39.87076
G1 X101.346 Y86.138 E39.90811
G1 X100.672 Y86.462 E39.94542
G1 X99.967 Y86.712 E39.98274
G1 X99.239 Y86.886 E40.02009
G1 X98.497 Y86.981 E40.05741
G1 X97.98 Y87 E40.08322
G1 X87 Y87 E40.63101
G1 X87 Y113 E41.92816
G1 X113.15 Y113 E43.23278
G1 X113.15 Y86.733 E44.54325
G1 X112.127 Y86.37 E44.59741
G1 X111.464 Y86.023 E44.63474
G1 X110.841 Y85.608 E44.67209
G1 X110.267 Y85.129 E44.70938
G1 X109.746 Y84.592 E44.74671
G1 X109.287 Y84.002 E44.78401
G1 X108.892 Y83.366 E44.82136
G1 X108.568 Y82.692 E44.85867
G1 X108.318 Y81.987 E44.89599
G1 X108.144 Y81.259 E44.93333
G1 X108.049 Y80.517 E44.97065
G1 X108.03 Y80 E44.99646
G1 X108.03 Y75 E45.24591
G1 X108.07 Y74.253 E45.28323
G1 X108.189 Y73.515 E45.32053
G1 X108.387 Y72.793 E45.35788
G1 X108.66 Y72.097 E45.39518
G1 X109.007 Y71.434 E45.43251
G1 X109.422 Y70.811 E45.46986
G1 X109.901 Y70.237 E45.50716
G1 X110.438 Y69.716 E45.54448
G1 X111.028 Y69.257 E45.58178
G1 X111.664 Y68.862 E45.61913
G1 X112.338 Y68.538 E45.65644
G1 X113.043 Y68.288 E45.69376
G1 X113.771 Y68.114 E45.7311
G1 X114.513 Y68.019 E45.76842
G1 X115.03 Y68 E45.79423
G1 X125 Y68 E46.29164
G1 X125.747 Y68.04 E46.32896
G1 X126.485 Y68.159 E46.36625
G1 X127.207 Y68.357 E46.4036
G1 X127.903 Y68.63 E46.4409
G1 X128.566 Y68.977 E46.47824
G1 X129.189 Y69.392 E46.51558
G1 X129.763 Y69.871 E46.55288
G1 X130.284 Y70.408 E46.59021
G1 X130.743 Y70.998 E46.6275
G1 X131.138 Y71.634 E46.66485
G1 X131.462 Y72.308 E46.70216
G1 X131.712 Y73.013 E46.73948
G1 X131.886 Y73.741 E46.77683
G1 X131.981 Y74.483 E46.81415
G1 X132 Y75 E46.83996
G1 X132 Y125 E49.33447
G1 X131.96 Y125.747 E49.37179
G1 X131.841 Y126.485 E49.40908
G1 X131.643 Y127.207 E49.44643
G1 X131.37 Y127.903 E49.48373
G1 X131.023 Y128.566 E49.52107
G1 X130.608 Y129.189 E49.55841
G1 X130.129 Y129.763 E49.59571
G1 X129.592 Y130.284 E49.63304
G1 X129.002 Y130.743 E49.67033
G1 X128.366 Y131.138 E49.70768
G1 X127.692 Y131.462 E49.74499
G1 X126.987 Y131.712 E49.78231
G1 X126.259 Y131.886 E49.81966
G1 X125.517 Y131.981 E49.85698
G1 X125 Y132 E49.88279
G1 X75 Y132 E52.3773
G1 X74.253 Y131.96 E52.41462
G1 X73.515 Y131.841 E52.45191
G1 X72.793 Y131.643 E52.48926
G1 X72.097 Y131.37 E52.52656
G1 X71.434 Y131.023 E52.5639
G1 X70.811 Y130.608 E52.60124
G1 X70.237 Y130.129 E52.63854
G1 X69.716 Y129.592 E52.67587
G1 X69.257 Y129.002 E52.71316
G1 X68.862 Y128.366 E52.75051
G1 X68.538 Y127.692 E52.78782
G1 X68.288 Y126.987 E52.82514
G1 X68.114 Y126.259 E52.86249
G1 X68.019 Y125.517 E52.89981
G1 X68 Y125 E52.92562
G1 X68 Y75 E55.42013
G0 F3600 X68.4 Y75
G1 F1800 X68.44 Y74.275 E55.45635
G1 X68.559 Y73.558 E55.49261
G1 X68.757 Y72.859 E55.52886
G1 X69.03 Y72.186 E55.56509
G1 X69.375 Y71.547 E55.60132
G1 X69.789 Y70.95 E55.63757
G1 X70.265 Y70.402 E55.67378
G1 X70.799 Y69.909 E55.71004
G1 X71.384 Y69.479 E55.74626
G1 X72.013 Y69.115 E55.78252
G1 X72.678 Y68.822 E55.81877
G1 X73.371 Y68.604 E55.85502
G1 X74.083 Y68.464 E55.89122
G1 X75 Y68.4 E55.93708
G1 X97.98 Y68.4 E57.08356
G1 X98.705 Y68.44 E57.11978
G1 X99.422 Y68.559 E57.15604
G1 X100.121 Y68.757 E57.19229
G1 X100.794 Y69.03 E57.22852
G1 X101.433 Y69.375 E57.26475
G1 X102.03 Y69.789 E57.301
G1 X102.578 Y70.265 E57.33721
G1 X103.071 Y70.799 E57.37347
G1 X103.501 Y71.384 E57.40969
G1 X103.865 Y72.013 E57.44595
G1 X104.158 Y72.678 E57.4822
G1 X104.376 Y73.371 E57.51845
G1 X104.516 Y74.083 E57.55465
G1 X104.58 Y75 E57.60051
G1 X104.58 Y80 E57.84996
G1 X104.54 Y80.725 E57.88619
G1 X104.421 Y81.442 E57.92245
G1 X104.223 Y82.141 E57.95869
G1 X103.95 Y82.814 E57.99492
G1 X103.605 Y83.453 E58.03115
G1 X103.191 Y84.05 E58.0674
G1 X102.715 Y84.598 E58.10361
G1 X102.181 Y85.091 E58.13987
G1 X101.596 Y85.521 E58.17609
G1 X100.967 Y85.885 E58.21235
G1 X100.302 Y86.178 E58.24861
G1 X99.609 Y86.396 E58.28485
G1 X98.897 Y86.536 E58.32105
G1 X97.98 Y86.6 E58.36691
G1 X86.6 Y86.6 E58.93466
G1 X86.6 Y113.4 E60.27172
G1 X113.55 Y113.4 E61.61626
G1 X113.55 Y86.43 E62.9618
G1 X112.889 Y86.243 E62.99607
G1 X112.216 Y85.97 E63.03231
G1 X111.577 Y85.625 E63.06853
G1 X110.98 Y85.211 E63.10478
G1 X110.432 Y84.735 E63.14099
G1 X109.939 Y84.201 E63.17725
G1 X109.509 Y83.616 E63.21347
G1 X109.145 Y82.987 E63.24973
G1 X108.852 Y82.322 E63.28599
G1 X108.634 Y81.629 E63.32223
G1 X108.494 Y80.917 E63.35843
G1 X108.43 Y80 E63.40429
G1 X108.43 Y75 E63.65374
G1 X108.47 Y74.275 E63.68997
G1 X108.589 Y73.558 E63.72623
G1 X108.787 Y72.859 E63.76248
G1 X109.06 Y72.186 E63.79871
G1 X109.405 Y71.547 E63.83494
G1 X109.819 Y70.95 E63.87118
G1 X110.295 Y70.402 E63.9074
G1 X110.829 Y69.909 E63.94366
G1 X111.414 Y69.479 E63.97988
G1 X112.043 Y69.115 E64.01613
G1 X112.708 Y68.822 E64.05239
G1 X113.401 Y68.604 E64.08863
G1 X114.113 Y68.464 E64.12484
G1 X115.03 Y68.4 E64.1707
G1 X125 Y68.4 E64.6681
G1 X125.725 Y68.44 E64.70433
G1 X126.442 Y68.559 E64.74059
G1 X127.141 Y68.757 E64.77683
G1 X127.814 Y69.03 E64.81307
G1 X128.453 Y69.375 E64.8493
G1 X129.05 Y69.789 E64.88554
G1 X129.598 Y70.265 E64.92175
G1 X130.091 Y70.799 E64.95801
G1 X130.521 Y71.384 E64.99424
G1 X130.885 Y72.013 E65.03049
G1 X131.178 Y72.678 E65.06675
G1 X131.396 Y73.371 E65.10299
G1 X131.536 Y74.083 E65.13919
G1 X131.6 Y75 E65.18505
G1 X131.6 Y125 E67.67956
G1 X131.56 Y125.725 E67.71579
G1 X131.441 Y126.442 E67.75205
G1 X131.243 Y127.141 E67.7883
G1 X130.97 Y127.814 E67.82453
G1 X130.625 Y128.453 E67.86076
G1 X130.211 Y129.05 E67.897
G1 X129.735 Y129.598 E67.93322
G1 X129.201 Y130.091 E67.96948
G1 X128.616 Y130.521 E68.0057
G1 X127.987 Y130.885 E68.04195
G1 X127.322 Y131.178 E68.07821
G1 X126.629 Y131.396 E68.11445
G1 X125.917 Y131.536 E68.15066
G1 X125 Y131.6 E68.19652
G1 X75 Y131.6 E70.69103
G1 X74.275 Y131.56 E70.72725
G1 X73.558 Y131.441 E70.76351
G1 X72.859 Y131.243 E70.79976
G1 X72.186 Y130.97 E70.83599
G1 X71.547 Y130.625 E70.87222
G1 X70.95 Y130.211 E70.90847
G1 X70.402 Y129.735 E70.94468
G1 X69.909 Y129.201 E70.98094
G1 X69.479 Y128.616 E71.01716
G1 X69.115 Y127.987 E71.05342
G1 X68.822 Y127.322 E71.08967
G1 X68.604 Y126.629 E71.12592
G1 X68.464 Y125.917 E71.16212
G1 X68.4 Y125 E71.20798
G1 X68.4 Y75 E73.70249
G0 F3600 X68.8 Y75
G1 F1800 X68.84 Y74.297 E73.73762
G1 X68.959 Y73.603 E73.77275
G1 X69.157 Y72.928 E73.80784
G1 X69.429 Y72.279 E73.84295
G1 X69.774 Y71.665 E73.87809
G1 X70.185 Y71.094 E73.91319
G1 X70.659 Y70.573 E73.94833
G1 X71.189 Y70.109 E73.98347
G1 X71.768 Y69.709 E74.01858
G1 X72.389 Y69.377 E74.05371
G1 X73.043 Y69.117 E74.08882
G1 X73.723 Y68.933 E74.12397
G1 X74.419 Y68.827 E74.15909
G1 X75 Y68.8 E74.18811
